X:1
T:[ID 11-27d]
T:[ID 11-27d]
T:Bezeichnung standardisiert: Anglaise No. 4 Angelese
T:Urheber unbekannt Datum in der hier transkribierten schriftlichen Quelle: vermutlich um 1800
C:Urheber unbekannt
C:Datum in der hier transkribierten schriftlichen Quelle: vermutlich um 1800
L:1/8
M:3/8
K:D
V:1 treble 
V:1
 f | d2 f | A2 f | e2 g | B2 g | f2 a | afd | eaa | a2 :: e | cea | a2 b | gg/f/e | e2 g | f2 a | %15
 afd | egB | d2 :: d | c2 B | A2 ^G | A2 ^G | A2 (B/c/) | ee/c/d | e2 e | ABc | d2 :| %27

